icon/lg/yarn.svg

<?xml version="1.0" encoding="UTF-8"?>
<svg viewBox="0 0 256 256" version="1.1" xmlns="http://www.w3.org/2000/svg" xmlns:xlink="http://www.w3.org/1999/xlink" preserveAspectRatio="xMidYMid" height="1em" width="1em">
  <g>
    <path d="M128,0 C57.3281853,0 0,57.3281853 0,128 C0,198.671815 57.3281853,256 128,256 C198.671815,256 256,198.671815 256,128 C256,57.3281853 198.671815,0 128,0" fill="#368FB9"/>
    <path d="M203.317375,174.060232 C195.410039,175.938224 191.40695,177.667954 181.621622,184.043243 C166.350579,193.927413 149.646332,198.523552 149.646332,198.523552 C149.646332,198.523552 148.262548,200.599228 144.259459,201.538224 C137.340541,203.218533 111.295753,204.651737 108.923552,204.701158 C102.548263,204.750579 98.6440154,203.07027 97.5567568,200.450965 C94.2455598,192.543629 102.301158,189.08417 102.301158,189.08417 C102.301158,189.08417 100.522008,187.996911 99.4841699,187.008494 C98.5451737,186.069498 97.5567568,184.191506 97.2602317,184.883398 C96.0247104,187.898069 95.3822394,195.261776 92.0710425,198.572973 C87.5243243,203.169112 78.9250965,201.637066 73.834749,198.96834 C68.2501931,196.003089 74.2301158,189.034749 74.2301158,189.034749 C74.2301158,189.034749 71.215444,190.8139 68.7938224,187.156757 C66.619305,183.796139 64.5930502,178.06332 65.1366795,170.996139 C65.7297297,162.940541 74.7243243,155.132046 74.7243243,155.132046 C74.7243243,155.132046 73.1428571,143.221622 78.3320463,131.014672 C83.027027,119.894981 95.6787645,110.949807 95.6787645,110.949807 C95.6787645,110.949807 85.0532819,99.1876448 89.0069498,88.611583 C91.576834,81.6926641 92.6146718,81.7420849 93.4548263,81.4455598 C96.4200772,80.3088803 99.2864865,79.0733591 101.411583,76.7505792 C112.037066,65.2849421 125.578378,67.4594595 125.578378,67.4594595 C125.578378,67.4594595 132.003089,47.9382239 137.933591,51.7436293 C139.762162,52.9297297 146.335135,67.5583012 146.335135,67.5583012 C146.335135,67.5583012 153.352896,63.4563707 154.143629,64.988417 C158.393822,73.2416988 158.888031,89.0069498 157.010039,98.5945946 C153.847104,114.409266 145.939768,122.909653 142.776834,128.247104 C142.035521,129.482625 151.27722,133.386873 157.10888,149.54749 C162.495753,164.324324 157.701931,176.728958 158.542085,178.112741 C158.690347,178.359846 158.739768,178.458687 158.739768,178.458687 C158.739768,178.458687 164.917375,178.952896 177.322008,171.292664 C183.944402,167.190734 191.802317,162.594595 200.74749,162.495753 C209.396139,162.34749 209.840927,172.478764 203.317375,174.060232 L203.317375,174.060232 Z M215.079537,166.795367 C214.189961,159.777606 208.259459,154.934363 200.648649,155.033205 C189.281853,155.181467 179.743629,161.062548 173.417761,164.966795 C170.946718,166.498842 168.821622,167.635521 166.99305,168.475676 C167.388417,162.742857 167.042471,155.230888 164.07722,146.977606 C160.469498,137.093436 155.626255,131.014672 152.166795,127.505792 C156.169884,121.674131 161.655598,113.173745 164.225483,100.027799 C166.449421,88.8092664 165.757529,71.3637066 160.667181,61.5783784 C159.629344,59.6015444 157.899614,58.1683398 155.725097,57.5752896 C154.835521,57.3281853 153.155212,56.8339768 149.844015,57.772973 C144.85251,47.4440154 143.12278,46.3567568 141.788417,45.4671815 C139.020849,43.6880309 135.759073,43.2926641 132.694981,44.4293436 C128.59305,45.9119691 125.08417,49.8656371 121.772973,56.8833977 C121.278764,57.9212355 120.833977,58.9096525 120.43861,59.8980695 C114.162162,60.3428571 104.277992,62.6162162 95.9258687,71.6602317 C94.8880309,72.7969112 92.8617761,73.6370656 90.7366795,74.4277992 L90.7861004,74.4277992 C86.4370656,75.9598456 84.4602317,79.5181467 82.03861,85.9428571 C78.6779923,94.9374517 82.1374517,103.783784 85.5474903,109.516602 C80.9019305,113.667954 74.7243243,120.290347 71.4625483,128.049421 C67.4100386,137.637066 66.965251,147.027027 67.1135135,152.117375 C63.6540541,155.774517 58.3166023,162.644015 57.7235521,170.353668 C56.9328185,181.127413 60.8370656,188.441699 62.5667954,191.110425 C63.0610039,191.901158 63.6046332,192.543629 64.1976834,193.1861 C64,194.520463 63.9505792,195.953668 64.2471042,197.436293 C64.8895753,200.895753 67.0640927,203.712741 70.3752896,205.491892 C76.8988417,208.951351 85.992278,210.433977 93.0100386,206.925097 C95.5305019,209.593822 100.126641,212.163707 108.478764,212.163707 L108.972973,212.163707 C111.098069,212.163707 138.081853,210.730502 145.939768,208.803089 C149.448649,207.962934 151.87027,206.480309 153.451737,205.145946 C158.492664,203.564479 172.429344,198.820077 185.57529,190.319691 C194.866409,184.290347 198.078764,183.005405 204.997683,181.325097 C211.718919,179.694208 215.919691,173.566023 215.079537,166.795367 L215.079537,166.795367 Z" fill="#FFFFFF"/>
  </g>
</svg>

<svg width="256" height="256" xmlns="http://www.w3.org/2000/svg" preserveAspectRatio="xMidYMid"><path d="M128 0C57.328 0 0 57.328 0 128s57.328 128 128 128 128-57.328 128-128S198.672 0 128 0" fill="#368FB9"/><path d="M203.317 174.06c-7.907 1.878-11.91 3.608-21.695 9.983-15.271 9.884-31.976 14.48-31.976 14.48s-1.383 2.076-5.387 3.015c-6.918 1.68-32.963 3.114-35.335 3.163-6.376.05-10.28-1.63-11.367-4.25-3.311-7.907 4.744-11.367 4.744-11.367s-1.779-1.087-2.817-2.076c-.939-.939-1.927-2.816-2.224-2.125-1.235 3.015-1.878 10.379-5.189 13.69-4.547 4.596-13.146 3.064-18.236.395-5.585-2.965.395-9.933.395-9.933s-3.015 1.779-5.436-1.878c-2.175-3.36-4.2-9.094-3.657-16.16.593-8.056 9.587-15.865 9.587-15.865s-1.581-11.91 3.608-24.117c4.695-11.12 17.347-20.065 17.347-20.065s-10.626-11.762-6.672-22.338c2.57-6.92 3.608-6.87 4.448-7.166 2.965-1.137 5.831-2.373 7.957-4.695 10.625-11.466 24.166-9.292 24.166-9.292s6.425-19.52 12.356-15.715c1.828 1.186 8.401 15.814 8.401 15.814s7.018-4.102 7.809-2.57c4.25 8.254 4.744 24.019 2.866 33.607-3.163 15.814-11.07 24.315-14.233 29.652-.741 1.236 8.5 5.14 14.332 21.3 5.387 14.777.593 27.182 1.433 28.566.148.247.198.346.198.346s6.177.494 18.582-7.166c6.622-4.102 14.48-8.698 23.425-8.797 8.65-.149 9.094 9.983 2.57 11.564Zm11.763-7.265c-.89-7.017-6.82-11.86-14.431-11.762-11.367.148-20.905 6.03-27.231 9.934-2.471 1.532-4.596 2.669-6.425 3.509.395-5.733.05-13.245-2.916-21.498-3.608-9.885-8.45-15.963-11.91-19.472 4.003-5.832 9.489-14.332 12.058-27.478 2.224-11.219 1.533-28.664-3.558-38.45-1.038-1.976-2.767-3.41-4.942-4.003-.89-.247-2.57-.741-5.881.198-4.991-10.329-6.721-11.416-8.056-12.306-2.767-1.779-6.029-2.174-9.093-1.038-4.102 1.483-7.61 5.437-10.922 12.454a51.47 51.47 0 0 0-1.334 3.015c-6.277.445-16.161 2.718-24.513 11.762-1.038 1.137-3.064 1.977-5.19 2.768h.05c-4.349 1.532-6.326 5.09-8.747 11.515-3.361 8.994.098 17.84 3.508 23.574-4.645 4.151-10.823 10.773-14.084 18.532-4.053 9.588-4.498 18.978-4.35 24.068-3.459 3.658-8.796 10.527-9.39 18.237-.79 10.773 3.114 18.088 4.844 20.756.494.791 1.038 1.434 1.63 2.076-.197 1.334-.246 2.768.05 4.25.643 3.46 2.817 6.277 6.128 8.056 6.524 3.46 15.617 4.942 22.635 1.433 2.52 2.669 7.117 5.239 15.469 5.239h.494c2.125 0 29.109-1.433 36.967-3.36 3.509-.841 5.93-2.324 7.512-3.658 5.04-1.582 18.977-6.326 32.123-14.826 9.291-6.03 12.504-7.315 19.423-8.995 6.72-1.63 10.922-7.759 10.082-14.53Z" fill="#FFF"/></svg>
